X: 38323
T: Stack Of Oats, The
R: barndance
M: 4/4
K: Gmajor
DG|B4B ABA|D4D2 GA|B2 AB c2 A2|E8|
AGFG A2 D2|GFGA B2 e2|(3dcB (3cBA E2 F2|G4G2:|
Bc|d2 d2 g2 g2|dedB G2 Bc|d2 d2 g2 d2|f8|
cBAB c2 d2|f8|e4 ed^ce|d4d2 Bc|
d2 d2 g2 g2|dedB G2 Bc|d2 d2 g2 d2|b8|
abaf d2 a2|gagd B2 e2|(3dcB (3cBA E2 F2|G8||

